svgs/cherrygram.svg

<svg width="192" height="192" viewBox="0 0 192 192" fill="none" xmlns="http://www.w3.org/2000/svg">
<path d="M96 148.41C101.558 161.119 114.242 170 129 170C148.882 170 165 153.882 165 134C165 114.118 148.882 98 129 98C114.242 98 101.558 106.881 96 119.59M96 148.41C94.0705 143.998 93 139.124 93 134C93 128.876 94.0705 124.002 96 119.59M96 148.41C90.4425 161.119 77.7583 170 63 170C43.1177 170 27 153.882 27 134C27 114.118 43.1177 98 63 98C77.7583 98 90.4425 106.881 96 119.59M117.5 22C112.087 25.0509 106.697 28.5464 101.5 32.4337M101.5 32.4337C80.2928 48.2954 63.7908 72.7654 60.5 98.0854M101.5 32.4337C98.9976 65.0917 121.5 74.5 131.5 98.0854" stroke="black" stroke-width="12" stroke-linecap="round"/>
<path d="M167.806 51.7281C149.205 37.3277 127.078 28.8202 107.804 37.499C105.027 38.7494 104.036 42.1202 105.547 44.7644C118.928 68.1858 140.491 69.2626 166.046 61.2666C170.332 59.9256 171.357 54.4771 167.806 51.7281Z" stroke="black" stroke-width="12" stroke-linecap="round"/>
</svg>

<svg xmlns="http://www.w3.org/2000/svg" width="192" height="192" fill="none" viewBox="0 0 192 192"><path stroke="#000" stroke-linecap="round" stroke-width="12" d="M96 148.41c5.558 12.709 18.242 21.59 33 21.59 19.882 0 36-16.118 36-36s-16.118-36-36-36c-14.758 0-27.442 8.881-33 21.59m0 28.82c-1.93-4.412-3-9.286-3-14.41s1.07-9.998 3-14.41m0 28.82C90.442 161.119 77.758 170 63 170c-19.882 0-36-16.118-36-36s16.118-36 36-36c14.758 0 27.442 8.881 33 21.59M117.5 22a149 149 0 0 0-16 10.434m0 0c-21.207 15.861-37.71 40.331-41 65.651m41-65.651c-2.502 32.658 20 42.066 30 65.651"/><path stroke="#000" stroke-linecap="round" stroke-width="12" d="M167.806 51.728c-18.601-14.4-40.728-22.908-60.002-14.229-2.777 1.25-3.768 4.621-2.257 7.265 13.381 23.422 34.944 24.499 60.499 16.503 4.286-1.341 5.311-6.79 1.76-9.539Z"/></svg>
